X:2389
T:Cabinet Of Love,The. WM.087
M:2/4
L:1/8
Q:250
S:Wm.Mittell's MS,New Romney,Kent,1799
R:Reel
O:England
A:Kent
N:
D:
H:
Z:vmp.Chris Partington
W:Foot it across and turn the same back again,cross over and half figure
W:a right and left at the to
K:G
"*"BGGB|cAAc|BGGB|dBg2|BGGB|cAAc|BGAF|G2G2:|!
|:gdBG|AFED|gdBG|dBg2|gdBG|AFED|(G/A/B/c/) dB|G2G,2:|]
W:key may be Dmaj in MS,unclear.. |]


